X:1
T:Lady Elgin's Courtship -- Reel
R:reel
B:Ryan's Mammoth Collection
N:258
Z:Contributed by Ray Davies,  ray:davies99.freeserve.co.uk
M:2/4
L:1/16
K:Bb
ud2|\
B2(FB) DBFB | B2((3dcB) Accd | B2(FB) DBFB |\
((3ABc) (c"4"e) dBBd |
B2(FB) DBGB | B2((3dcB) Accd | B2(FB) DBFB |\
((3ABc) (c"4"e) (dB).B2 H|]
|:ud2|\
BBdB fBdB | BBdB Accd | BBdB fBdB | ((3ABc) (c"4"e) dBBd |
BBdB fBdB | BBdB Accd | BBdB fBdf | gba"4"c' b2:|
